!!!COM: Schiørring, Niels
!!!CDT: 1743-1798
!!!OPR@@DA: Choral-Bog
!!!ONM: 43
!!!OTL@@DA: Jeg raaber faſt o Herre!
**kern	**fb	**kern	**kern	**kern	**kern	**kern	**kern	**kern
*part6	*part6	*part6	*part5	*part5	*part4	*part3	*part2	*part1
*staff8	*	*staff7	*staff6	*staff5	*staff4	*staff3	*staff2	*staff1
*clefF4	*	*clefC1	*clefF4	*clefC1	*clefF4	*clefC4	*clefC3	*clefC1
*mclefF4	*	*mclefG2	*mclefF4	*mclefG2	*mclefF4	*mclefGv2	*mclefG2	*mclefG2
*k[]	*	*k[]	*k[]	*k[]	*k[]	*k[]	*k[]	*k[]
*M4/4	*	*M4/4	*M4/4	*M4/4	*M4/4	*M4/4	*M4/4	*M4/4
*met(c)	*	*met(c)	*met(c)	*met(c)	*met(c)	*met(c)	*met(c)	*met(c)
*MM180	*	*MM180	*MM180	*MM180	*MM180	*MM180	*MM180	*MM180
*	*above	*	*	*	*	*	*	*
*	*	*	*^	*^	*	*	*	*
=1	=1	=1	=1	=1	=1	=1	=1	=1	=1	=1
2D	.	2a	2F	2D	2a	2d	2D	2F	2A	2a
=2	=2	=2	=2	=2	=2	=2	=2	=2	=2	=2
2F	6	2d	2A	2F	2d	2d	2F	2A	2A	2d
2C#X	6	2e	2A	2C#X	2e	2A	2C#X	2A	2e	2e
=3	=3	=3	=3	=3	=3	=3	=3	=3	=3	=3
2D	5	2f	4A	2D	2f	2.d	2D	(4A	2.d	2f
.	6	.	4B	.	.	.	.	4B)	.	.
2E	7	2e	2G	2E	2e	.	2E	2G	.	2e
.	6	.	.	.	.	4cni	.	.	4c	.
=4	=4	=4	=4	=4	=4	=4	=4	=4	=4	=4
2F	6 5	1d	2A	2F	1d	2c	(2F	(2A	(2c	1d
2G	.	.	2G	2G	.	2B	2G)	2G)	2B)	.
=5	=5	=5	=5	=5	=5	=5	=5	=5	=5	=5
2C	.	2c	2E	2C	2c	2G	2C	2E	2c	2c
2AA	6	2f	2F	2AA	2f	2c	2AA	2F	2c	2f
=6	=6	=6	=6	=6	=6	=6	=6	=6	=6	=6
4BB-X	5	2d	4F	4BB-X	2d	2d	(4BB-X	(4F	2d	2d
4BBn	6	.	2G	4BBn	.	.	4BBn)	2G)	.	.
4C	5	2e	.	4C	2e	4c	(4C	.	(4c	2e
4C#X	6	.	4A	4C#X	.	4A	4C#X)	4A	4A)	.
=7	=7	=7	=7	=7	=7	=7	=7	=7	=7	=7
4D	5_	2f	2A	4D	2f	1d	(4D	2A	2d	2f
4Cni	.	.	.	4Cni	.	.	4Cni)	.	.	.
2BB-X	6	2g	2G	2BB-X	2g	.	2BB-X	2d	2d	2g
=8	=8	=8	=8	=8	=8	=8	=8	=8	=8	=8
2AA	#	2a	2E	2AA	2a	2c#X	2AA	2c#X	2e	2a
*	*	*	*	*	*	*^	*	*	*	*
2AA	n	2a	2A	2AA	2a	2cn	2e/	2AA	2c	2e	2a
=9	=9	=9	=9	=9	=9	=9	=9	=9	=9	=9	=9
2E	#	2g#X	2B	2E	2g#X	1e	1r	2E	2B	2e	2g#X
2C	6	2a	2A	2C	2a	.	.	2C	2A	2e	2a
=10	=10	=10	=10	=10	=10	=10	=10	=10	=10	=10	=10
2AA	.	2cc	[1A	2AA	2cc	2e	1r	2AA	2A	2e	2cc
2D	.	2dd	.	2D	2dd	2f	.	2D	[2A	2f	2dd
=11	=11	=11	=11	=11	=11	=11	=11	=11	=11	=11	=11
1E	4	1b	2A]	1E	1b	2e	1r	1E	(2A]	(2e	1b
.	#	.	2G#X	.	.	2d	.	.	2G#X)	2d)	.
=12	=12	=12	=12	=12	=12	=12	=12	=12	=12	=12	=12
2F	.	2a	2A	2F	2a	2c	1r	2F	2A	2c	2a
2GG#X	5	2dd	2ryy	2GG#X	2e	2b	.	2GG#X	2B	2e	2dd
=13	=13	=13	=13	=13	=13	=13	=13	=13	=13	=13	=13
2AA	.	2cc	2ryy	2AA	2e	2a	1r	2AA	2c	2e	2cc
4C	6	2a	[2A	4C	2a	2e	.	(4C	2e	[2a	2a
4D	.	.	.	4D	.	.	.	4D)	.	.	.
=14	=14	=14	=14	=14	=14	=14	=14	=14	=14	=14	=14
*	*	*	*	*	*	*	*	*^	*	*	*
2E	6 4	2cc	2A]	1E	2cc	1e	1r	2E	2E	2e	2a]	2cc
2EE	5 #	2b	2G#X	.	2b	.	.	2E	2EE	2d	2g#X	2b
=15	=15	=15	=15	=15	=15	=15	=15	=15	=15	=15	=15	=15
2AA	.	2a	2A	2AA	2a	2e	2c\	2AA	1r	2c	2a	2a
*	*	*	*	*	*	*v	*v	*	*	*	*	*
2F	.	2a	2A	2F	2a	2c	2F	.	2c	2f	2a
=16	=16	=16	=16	=16	=16	=16	=16	=16	=16	=16	=16
2E	6	2cc	2G	2E	2cc	2c	2E	1r	2c	2g	2cc
2F	.	2a	2A	2F	2a	2c	2F	.	2c	2f	2a
=17	=17	=17	=17	=17	=17	=17	=17	=17	=17	=17	=17
2C	8	2g	2E	2C	2g	4c	2C	1r	(4c	2e	2g
.	-7	.	.	.	.	4B-X	.	.	4B-X)	.	.
2D	.	2f	[2D	2D	2f	2A	2D	.	2A	[2d	2f
=18	=18	=18	=18	=18	=18	=18	=18	=18	=18	=18	=18
2GG	6 5 -	1e	2D]	2GG	1e	2B-X	(2GG	1r	(2B-X	(2d]	1e
2AA	#	.	2C#X	2AA	.	4A	2AA)	.	4A	2c#X)	.
.	.	.	.	.	.	4G	.	.	4G)	.	.
=19	=19	=19	=19	=19	=19	=19	=19	=19	=19	=19	=19
2BB-X	.	2d	2D	2BB-X	2d	2F	2BB-X	1r	2F	2d	2d
2GG	n	2g	2D	2GG	2g	2Bni	2GG	.	2Bi	2d	2g
=20	=20	=20	=20	=20	=20	=20	=20	=20	=20	=20	=20
2BBni	6	2g	1G	2BBni	2g	2d	2BBni	1r	2G	2d	2g
2C	.	2e	.	2C	2e	2c	2C	.	2G	2c	2e
=21	=21	=21	=21	=21	=21	=21	=21	=21	=21	=21	=21
2FF	6	2f	2ryy	2FF	2A	2d	2F	2FF	2A	2d	2f
2GG	.	2d	4G	2GG	2d	2B	2G	2GG	4G	2B	2d
.	.	.	4F	.	.	.	.	.	4F	.	.
*	*	*	*	*	*	*	*v	*v	*	*	*
=22	=22	=22	=22	=22	=22	=22	=22	=22	=22	=22
2C	.	2c	2E	2C	2c	2G	2C	2E	2c	2c
2C#X	6	2a	2A	2C#X	2a	2e	2C#X	2A	2e	2a
=23	=23	=23	=23	=23	=23	=23	=23	=23	=23	=23
2D	.	2f	2A	2D	2f	2d	2D	2A	2d	2f
2Cni	.	2g	2ryy	2Cni	2cni	2e	2Cni	2c	2e	2g
=24	=24	=24	=24	=24	=24	=24	=24	=24	=24	=24
2F	.	2a	1ryy	2F	2c	2f	2F	2c	2f	2a
2BB-X	.	2b-X	.	2BB-X	2d	[2f	2BB-X	2d	[2f	2b-X
=25	=25	=25	=25	=25	=25	=25	=25	=25	=25	=25
1C	4	1g	2c	1C	1g	2f]	1C	(2c	(2f]	1g
.	3	.	2B-X	.	.	2e	.	2B-X)	2e)	.
=26	=26	=26	=26	=26	=26	=26	=26	=26	=26	=26
2F	.	2f	2A	2F	2f	2c	2F	2A	2c	2f
4E	6	2g	4c	4E	2g	2e	(4E	(4c	2e	2g
4D	#6\ 4 2	.	4B-X	4D	.	.	4D)	4B-X)	.	.
=27	=27	=27	=27	=27	=27	=27	=27	=27	=27	=27
2C#X	6	2a	1A	2C#X	2a	2e	2C#X	2A	2e	2a
2D	.	2f	.	2D	2f	2d	2D	2A	2d	2f
=28	=28	=28	=28	=28	=28	=28	=28	=28	=28	=28
2GG	-	2g	2ryy	2GG	2B-X	2.d	2GG	2B-X	[2d	2g
2AA	4	2e	4A	2AA	2e	.	2AA	(4A	(4d]	2e
.	#	.	4G	.	.	4c#X	.	4G)	4c#X)	.
=29	=29	=29	=29	=29	=29	=29	=29	=29	=29	=29
2D	.	2d	2F	2D	2d	2A	2D	2F	2d	2d
*	*	*	*v	*v	*	*	*	*	*	*
*	*	*	*	*v	*v	*	*	*	*
==	==	==	==	==	==	==	==	==
*-	*-	*-	*-	*-	*-	*-	*-	*-
!!!system-decoration: {(s1,s2,s3,s4)}{(s5,s6)}{(s7,s8)}
!!!RDF**kern: i = editorial accidental
!!!RDF**kern: > = above
!!!RDF**kern: < = below
!!!AGN: chorale
!!!EED: Derek Remeš
!!!EED2: Victor Phan
!!!END: 2023/11/28
!!!ENC: Wolfgang Drescher
!!!EEV: 2023/12/08
!!!title: @{ONM}. @{OTL}
!!!verovio: mnumInterval 1